src/img/icons/dev-symbol.svg

<svg xmlns="http://www.w3.org/2000/svg" width="86" height="68" viewBox="0 0 86 68" fill="none">
  <path d="M46.482 5.86542C44.3618 5.58636 42.4505 7.08546 42.1834 9.18795L35.9485 57.3936C35.6814 59.4961 37.2231 61.1523 39.271 61.6922C41.3693 62.253 43.388 61.3033 43.5696 58.3696L49.8045 10.164C50.0746 8.07638 48.5874 6.14738 46.482 5.86542Z" fill="#878382" fill-opacity="0.5"/>
  <path d="M78.2486 23.5779L57.0169 15.1201C55.0443 14.3343 52.8119 15.295 52.0261 17.2677C51.2403 19.2404 52.201 21.4728 54.1737 22.2586L69.8723 28.5149L57.6871 40.2242C56.1557 41.6952 56.2527 44.004 57.5778 45.6564C58.9236 47.3355 61.0158 47.2347 63.01 45.7656L79.4884 29.9178C80.4358 29.008 80.842 27.6953 80.5923 26.4184C80.3397 25.1267 79.4541 24.0667 78.2486 23.5779Z" fill="#878382" fill-opacity="0.5"/>
  <path d="M31.5999 45.3258L15.9013 39.0695L28.0865 27.3602C29.6178 25.8891 29.6668 23.4593 28.1957 21.928C26.7247 20.3967 24.2949 20.3477 22.7636 21.8188L6.28225 37.6517C5.33485 38.5615 4.91384 39.8771 5.16356 41.154C5.41327 42.4309 6.30176 43.5058 7.50435 43.9797L28.7389 52.4523C32.043 53.4248 33.1054 51.9992 33.7297 50.3047C34.4829 48.323 33.5548 46.0997 31.5999 45.3258Z" fill="#878382" fill-opacity="0.5"/>
</svg>

<svg xmlns="http://www.w3.org/2000/svg" width="86" height="68" fill="none"><path d="M46.482 5.865a3.826 3.826 0 0 0-4.299 3.323L35.95 57.394c-.268 2.102 1.274 3.758 3.322 4.298 2.098.561 4.117-.389 4.299-3.322l6.234-48.206c.27-2.088-1.217-4.017-3.322-4.299ZM78.249 23.578 57.017 15.12a3.84 3.84 0 0 0-4.99 2.148 3.84 3.84 0 0 0 2.147 4.99l15.698 6.257-12.185 11.71c-1.531 1.47-1.434 3.779-.11 5.431 1.347 1.68 3.439 1.579 5.433.11l16.478-15.848a3.82 3.82 0 0 0 1.104-3.5 3.862 3.862 0 0 0-2.343-2.84ZM31.6 45.326 15.9 39.069 28.087 27.36a3.84 3.84 0 0 0 .109-5.432 3.84 3.84 0 0 0-5.432-.11L6.282 37.653a3.833 3.833 0 0 0-1.118 3.502 3.835 3.835 0 0 0 2.34 2.826l21.235 8.472c3.304.973 4.366-.453 4.99-2.147.754-1.982-.174-4.205-2.13-4.98Z" fill="#878382" fill-opacity=".5"/></svg>
